assets/imgs/edit_icon/quote.svg

<svg viewBox="0 0 118.9 94.95" xmlns="http://www.w3.org/2000/svg"><g fill="#525566"><path d="m34.75 0h-17.87c-9.32 0-16.88 8-16.88 17.81v18.85c0 9.84 7.56 17.81 16.88 17.81h1.77a4.44 4.44 0 0 1 3.71 2.06 5 5 0 0 1 .49 4.4l-10.08 27.56a4.94 4.94 0 0 0 .48 4.39 4.43 4.43 0 0 0 3.75 2.12h11.83a4.49 4.49 0 0 0 4-2.55l14.32-28.93a43.35 43.35 0 0 0 4.49-19.26v-26.45c0-9.81-7.56-17.81-16.89-17.81z"/><path d="m102 0h-17.85c-9.33 0-16.88 8-16.88 17.81v18.85c0 9.84 7.55 17.81 16.88 17.81h1.76a4.43 4.43 0 0 1 3.71 2.06 5 5 0 0 1 .49 4.4l-10.11 27.56a4.91 4.91 0 0 0 .49 4.39 4.4 4.4 0 0 0 3.74 2.12h11.86a4.48 4.48 0 0 0 4-2.55l14.33-28.88a43.35 43.35 0 0 0 4.49-19.26v-26.5c-.01-9.81-7.57-17.81-16.91-17.81z"/></g></svg>

<svg xmlns="http://www.w3.org/2000/svg" viewBox="0 0 118.9 94.95"><defs><style>.cls-1{fill:#525566;}</style></defs><title>quote</title><g id="レイヤー_2" data-name="レイヤー 2"><g id="レイヤー_3" data-name="レイヤー 3"><path class="cls-1" d="M34.75,0H16.88C7.56,0,0,8,0,17.81V36.66C0,46.5,7.56,54.47,16.88,54.47h1.77a4.44,4.44,0,0,1,3.71,2.06,5,5,0,0,1,.49,4.4L12.77,88.49a4.94,4.94,0,0,0,.48,4.39A4.43,4.43,0,0,0,17,95H28.83a4.49,4.49,0,0,0,4-2.55L47.15,63.52a43.35,43.35,0,0,0,4.49-19.26V17.81C51.64,8,44.08,0,34.75,0Z"/><path class="cls-1" d="M102,0H84.15C74.82,0,67.27,8,67.27,17.81V36.66c0,9.84,7.55,17.81,16.88,17.81h1.76a4.43,4.43,0,0,1,3.71,2.06,5,5,0,0,1,.49,4.4L80,88.49a4.91,4.91,0,0,0,.49,4.39A4.4,4.4,0,0,0,84.23,95H96.09a4.48,4.48,0,0,0,4-2.55l14.33-28.88a43.35,43.35,0,0,0,4.49-19.26V17.81C118.9,8,111.34,0,102,0Z"/></g></g></svg>
